applets/22x22/camera-web-symbolic.svg

<?xml version="1.0" encoding="UTF-8" standalone="no"?>
<svg xmlns="http://www.w3.org/2000/svg" xmlns:svg="http://www.w3.org/2000/svg" version="1.1" viewBox="0 0 22 22" id="svg1">
  <defs id="defs1">
    <style id="current-color-scheme" type="text/css">
        .ColorScheme-Text {
          color:#232629;
        }
      </style>
  </defs>
  <path id="smartphone" style="fill:currentColor" class="ColorScheme-Text" d="M 5,4 C 3.8920066,4 3,4.8920066 3,6 v 6 c 0,1.107994 0.8920066,2 2,2 h 4 v 4 H 7 C 6.7238588,18 6.5,18.223858 6.5,18.5 6.5,18.776142 6.7238588,19 7,19 h 8 c 0.276142,0 0.5,-0.223858 0.5,-0.5 C 15.5,18.223858 15.276142,18 15,18 h -2 v -4 h 4 c 1.107994,0 2,-0.892006 2,-2 V 6 C 19,4.8920066 18.107994,4 17,4 Z m 0,1 h 12 c 0.553994,0 1,0.4460036 1,1 v 6 c 0,0.553994 -0.446006,1 -1,1 H 5 C 4.4460036,13 4,12.553994 4,12 V 6 C 4,5.4460036 4.4460036,5 5,5 Z M 5.5,6 C 5.2238576,6 5,6.2238576 5,6.5 5,6.7761424 5.2238576,7 5.5,7 5.7761424,7 6,6.7761424 6,6.5 6,6.2238576 5.7761424,6 5.5,6 Z M 11,6 C 9.3431458,6 8,7.3431458 8,9 c 0,1.656854 1.3431458,3 3,3 1.656854,0 3,-1.343146 3,-3 0,-1.6568542 -1.343146,-3 -3,-3 z m 0,1 c 1.104569,0 2,0.8954305 2,2 0,1.104569 -0.895431,2 -2,2 C 9.8954305,11 9,10.104569 9,9 9,7.8954305 9.8954305,7 11,7 Z m -1,7 h 2 v 4 h -2 z"/>
</svg>

<?xml version="1.0" encoding="UTF-8"?>
<svg xmlns="http://www.w3.org/2000/svg" version="1.1" viewBox="0 0 22 22">
  <defs>
    <style id="current-color-scheme" type="text/css">.ColorScheme-Text { color:#232629; }</style>
  </defs>
  <path id="smartphone" class="ColorScheme-Text" d="m5 4c-1.108 0-2 0.89201-2 2v4a4 4 45 0 0 4 4h2v4h-2c-0.27614 0-0.5 0.22386-0.5 0.5s0.22386 0.5 0.5 0.5h8c0.27614 0 0.5-0.22386 0.5-0.5s-0.22386-0.5-0.5-0.5h-2v-4h2a4 4 135 0 0 4-4v-4c0-1.108-0.89201-2-2-2zm0 1h12c0.55399 0 1 0.446 1 1v4a3 3 135 0 1-3 3h-8a3 3 45 0 1-3-3v-4c0-0.554 0.446-1 1-1zm0.5 1c-0.27614 0-0.5 0.22386-0.5 0.5s0.22386 0.5 0.5 0.5 0.5-0.22386 0.5-0.5-0.22386-0.5-0.5-0.5zm5.5 0c-1.6569 0-3 1.3431-3 3 0 1.6569 1.3431 3 3 3 1.6569 0 3-1.3431 3-3 0-1.6569-1.3431-3-3-3zm0 1c1.1046 0 2 0.89543 2 2 0 1.1046-0.89543 2-2 2-1.1046 0-2-0.89543-2-2 0-1.1046 0.89543-2 2-2zm-1 7h2v4h-2z" fill="currentColor"/>
</svg>
